X:97
T: Schloss in Oesterreich
N: Q0024P
O: Mitteleuropa, Deutschland (BRD) , Hessen und Nassau
N: Vgl. Q0024L und M
R: Ballade, Gefangenschaft, Hinrichtung, Tod, Vergeltung
M: 3/4
L: 1/16
K: D
A2 | A2d2F6F2 | F2A2E6
A2 | A2B2B6G2 | G4F4z2
A2 | A2c2e6G2 | F2A2d4
f4 | edcBA6G2 | G4F4z2

